X:6019
T:Flight, The
R:Jig
C:Trad
O:England
Z:Paul Hardy's Session Tunebook 2015 (see www.paulhardy.net). Creative Commons cc by-nc-sa licenced.
M:6/8
L:1/8
Q:3/8=100
K:D
A|"D"dfe dfe|d2A "A7"A2G|"D"FAd "G"Bcd|"Em"egf "A7"e2A|
"D"dfe dfe|d2A "A7"A2G|"D"FAd "A7"Ace|"D"d3 d2:|
|:f/g/|"D"a2f dfa|"Em"b2g "A7"efg|"D"a2f d2f|"A7"ecA A2a|
"D"a2f dfa|"Em"b2g "A7"efg|"D"afd "A7"Ace|"D"d3 d2:|

